svgs/sharp-regular/circle-e.svg

<svg xmlns="http://www.w3.org/2000/svg" viewBox="0 0 512 512"><!--! Font Awesome Pro 6.6.0 by @fontawesome - https://fontawesome.com License - https://fontawesome.com/license (Commercial License) Copyright 2024 Fonticons, Inc. --><path d="M256 48a208 208 0 1 1 0 416 208 208 0 1 1 0-416zm0 464A256 256 0 1 0 256 0a256 256 0 1 0 0 512zM184 128l-24 0 0 24 0 104 0 104 0 24 24 0 144 0 24 0 0-48-24 0-120 0 0-56 88 0 24 0 0-48-24 0-88 0 0-56 120 0 24 0 0-48-24 0-144 0z"/></svg>

<svg xmlns="http://www.w3.org/2000/svg" viewBox="0 0 512 512"><!--! Font Awesome Pro 6.4.0 by @fontawesome - https://fontawesome.com License - https://fontawesome.com/license (Commercial License) Copyright 2023 Fonticons, Inc. --><path d="M256 48a208 208 0 1 1 0 416 208 208 0 1 1 0-416zm0 464A256 256 0 1 0 256 0a256 256 0 1 0 0 512zM184 128H160v24V256 360v24h24H328h24V336H328 208V280h88 24V232H296 208V176H328h24V128H328 184z"/></svg>
